X: 28097
T: Mr. John McIntosh Of Paisley
R: reel
M: 4/4
K: Aminor
EA A/A/A EA A/A/A|BG G/G/G BG Bg|EA A/A/A EA BA|CDB,D B,A,G,A,|
EA A/A/A EA A/A/A|BG G/G/G BG Bg|EA A/A/A EA BA|A,ECE ^GEGA||
ea a/a/^g aba=g|ec c/c/c dcde|ea a/a/^g aba=g|ec c/c/c dBA^G|
ea a/a/^g aba=g|ec c/c/c dcde|EA A/A/A EA BA|A,ECE ^GEGA||

